!!!Melodie: Psalm 84
!!!Typ: Psalmlied
**kern	**silbe	**silbe	**silbe	**silbe	**silbe	**silbe
*clefG2	*lang:DE	*lang:DE	*lang:DE	*lang:DE	*lang:DE	*lang:DE
*k[b-]	*	*	*	*	*	*
*M4/4	*	*	*	*	*	*
*met(c|)	*	*	*	*	*	*
2f	Wie	Die	Wohl,	Sie	Du	Denn
2cc	rei#	Schwalb’,	wohl	wal#	un#	Gott
4b-	#zend	der	dem	#len	#ser	der
4a	schön,	Sper#	Mann,	in	Schild,	Herr
4g	Herr	#ling	der	der	Gott,	ist
4f	Ze#	find’	in	Pil#	schau	Sonn’
2g	#ba#	ein	der	#ger#	uns	und
2a	#oth,	Haus,	Welt,	#schaft	an!	Schild,
=	=	=	=	=	=	=
2r	%	%	%	%	%	%
2a	ist	sie	dich,	und	Schau	er
4dd	dei#	brü#	Herr,	ge#	uns	deckt
4dd	#ne	#ten	für	#hen	in	uns,
4cc	Woh#	ih#	sei#	fort	dem	er
4a	#nung!	#re	#ne	von	Ge#	ist
2cc	O	Jun#	Stär#	Kraft	#salb#	gut
2g	mein	#gen	#ke	zu	#ten	und
2a	Gott,	aus;	hält,	Kraft,	an!	mild,
=	=	=	=	=	=	=
2r	%	%	%	%	%	%
2cc	wie	du	von	vor	Ein	er
4b-	seh#	gibst	Her#	Gott	Tag	wird
4a	#net	Be#	#zen	in	in	uns
4g	sich	#frie#	dei#	Zi#	dei#	Gnad’
4cc	mein	#di#	#nen	#on	#nem	und
4b-	Herz,	#gung	Weg	zu	Haus	Eh#
4a	zu	und	er#	er#	ist	#re
2g	ge#	Le#	#wäh#	#schei#	bes#	ge#
2f	#hen,	#ben;	#let!	#nen;	#ser,	#ben;
=	=	=	=	=	=	=
2r	%	%	%	%	%	%
2f	wo	Herr	Geht	hör’	denn	nichts
4a	du	Ze#	hier	mein	tau#	man#
4b-	dich	#ba#	sein	Ge#	#send	#gelt
2cc	hast	#oth,	Pfad	#bet,	sonst,	dem,
2dd	ge#	du	durch’s	Herr	ohn’	der
4cc	#of#	wirst	Trä#	Ze#	dich	in
4b	#fen#	auch	#nen#	#ba#	zu	der
2cc	#bart,	mir,	#tal,	#oth!	seh’n;	Not
=	=	=	=	=	=	=
2r	%	%	%	%	%	%
2f	und	mein	er	Ver#	dort	auf
4a	bald	Herr,	fin#	#nimm's,	auf	Gott
4b-	in	mein	#det	ver#	der	ver#
2cc	dei#	Gott,	auch	#nimm's,	Schwel#	#traut,
2dd	#ner	ich	in	O	#le	er
4cc	Ge#	trau#	Not	Ja#	nur	hilft
4b	#gen#	#er	und	#kobs	zu	im
2cc	#wart,	dir,	Qual,	Gott!	steh’n	Tod,
=	=	=	=	=	=	=
2r	%	%	%	%	%	%
2ff	im	bei	dass	Er#	an	er
4ee	Vor#	dei#	Trost	#quik#	mei#	sel#
4dd	#hof,	#nem	und	#ke	#nes	#ber
2cc	nah	Al#	Kraft	mich	Got#	ist
2a	am	#ter,	ihm	auch	#tes	der
4g	Thron	Freu#	nim#	mit	Haus,	From#
4cc	zu	#de	#mer	den	ist	#men
2dd	ste#	ge#	feh#	dei#	grö#	Le#
2cc	#hen!	#ben;	#let;	#nen;	#ßer,	#ben;
=	=	=	=	=	=	=
2r	%	%	%	%	%	%
2cc	Dort	O	von	bis	als	Heil
4cc	jauch#	se#	dir	wir	lang’	dem,
4b-	#zet	#lig,	he#	vor	in	der
2a	Fleisch	wer	#rab	dei#	stol#	stets
2dd	und	dort	fließt	#nem	#zer	in
4cc	Geist	al#	mild	Thro#	Ruh	die#
4b-	in	#le#	und	#ne	der	#ser
2a	mir,	#zeit	hell	steh’n,	Welt	Welt,
=	=	=	=	=	=	=
2r	%	%	%	%	%	%
2f	o	in	auf	und	zu	Herr
4a	Gott	dei#	ihn	dort	woh#	Ze#
4cc	des	#nem	die	an#	#nen	#ba#
4g	Le#	Lo#	rei#	#be#	in	#oth,
4b-	#bens,	#be	#che	#tend	der	an
2a	auf	sich	Se#	dich	Bö#	dir
2g	zu	er#	#gens#	er#	#sen	sich
0f	dir.	#freut!	#quell.	#höh'n.	Zelt.	hält!
==	==	==	==	==	==	==
*-	*-	*-	*-	*-	*-	*-
